%
(Header)
(Generated by gcodetools from Inkscape.)
(Using default header. To add your own header create file "header" in the output dir.)
M3
(Header end.)
G21 (All units in mm)

(Start cutting path id: path3)
(Change tool to Default tool)

G00 Z5.000000
G00 X95.763184 Y130.278366

G01 Z-0.125000 F100.0(Penetrate)
G01 X110.126820 Y102.994746 Z-0.125000 F400.000000
G01 X142.244860 Y98.619630 Z-0.125000
G01 X119.004020 Y77.382300 Z-0.125000
G01 X124.490430 Y47.394690 Z-0.125000
G01 X95.763183 Y61.552920 Z-0.125000
G01 X67.035923 Y47.394690 Z-0.125000
G01 X72.522345 Y77.382300 Z-0.125000
G01 X49.281504 Y98.619630 Z-0.125000
G01 X81.399554 Y102.994746 Z-0.125000
G01 X95.763184 Y130.278366 Z-0.125000
G00 Z5.000000

(End cutting path id: path3)


(Start cutting path id: text1)
(Change tool to Default tool)

G00 Z5.000000
G00 X99.124867 Y133.630799

G01 Z-0.125000 F100.0(Penetrate)
G01 X97.313731 Y133.630799 Z-0.125000 F400.000000
G01 X92.094707 Y151.218926 Z-0.125000
G01 X92.094707 Y133.630799 Z-0.125000
G01 X90.727115 Y133.630799 Z-0.125000
G01 X90.727115 Y153.292001 Z-0.125000
G01 X92.996579 Y153.292001 Z-0.125000
G01 X97.757275 Y137.235572 Z-0.125000
G01 X97.757275 Y153.292001 Z-0.125000
G01 X99.124867 Y153.292001 Z-0.125000
G01 X99.124867 Y133.630799 Z-0.125000
G00 Z5.000000

(End cutting path id: text1)


(Start cutting path id: text1)
(Change tool to Default tool)

G00 Z5.000000
G00 X109.304184 Y133.630799

G01 Z-0.125000 F100.0(Penetrate)
G01 X102.052249 Y133.630799 Z-0.125000 F400.000000
G01 X102.052249 Y153.292001 Z-0.125000
G01 X109.304184 Y153.292001 Z-0.125000
G01 X109.304184 Y150.968044 Z-0.125000
G01 X103.515944 Y150.968044 Z-0.125000
G01 X103.515944 Y145.580691 Z-0.125000
G01 X109.304184 Y145.580691 Z-0.125000
G01 X109.304184 Y143.256734 Z-0.125000
G01 X103.515944 Y143.256734 Z-0.125000
G01 X103.515944 Y135.954756 Z-0.125000
G01 X109.304184 Y135.954756 Z-0.125000
G01 X109.304184 Y133.630799 Z-0.125000
G00 Z5.000000

(End cutting path id: text1)


(Start cutting path id: path2)
(Change tool to Default tool)

G00 Z5.000000
G00 X95.763184 Y119.033380

G01 Z-0.125000 F100.0(Penetrate)
G01 X106.221620 Y99.167640 Z-0.125000 F400.000000
G01 X129.607410 Y95.982030 Z-0.125000
G01 X112.685290 Y80.518710 Z-0.125000
G01 X116.680060 Y58.684150 Z-0.125000
G01 X95.763183 Y68.993030 Z-0.125000
G01 X74.846302 Y58.684150 Z-0.125000
G01 X78.841073 Y80.518710 Z-0.125000
G01 X61.918960 Y95.982030 Z-0.125000
G01 X85.304743 Y99.167640 Z-0.125000
G01 X95.763184 Y119.033380 Z-0.125000
G00 Z5.000000

(End cutting path id: path2)


(Start cutting path id: path1)
(Change tool to Default tool)

G00 Z5.000000
G00 X95.763215 Y116.123262

G01 Z-0.125000 F100.0(Penetrate)
G01 X105.210770 Y98.177691 Z-0.125000 F400.000000
G01 X126.336152 Y95.299985 Z-0.125000
G01 X111.049682 Y81.331306 Z-0.125000
G01 X114.658328 Y61.607216 Z-0.125000
G01 X95.763214 Y70.919671 Z-0.125000
G01 X76.868098 Y61.607216 Z-0.125000
G01 X80.476745 Y81.331306 Z-0.125000
G01 X65.190275 Y95.299986 Z-0.125000
G01 X86.315656 Y98.177690 Z-0.125000
G01 X95.763215 Y116.123262 Z-0.125000
G00 Z5.000000

(End cutting path id: path1)


(Start cutting path id: text1)
(Change tool to Default tool)

G00 Z5.000000
G00 X88.235876 Y133.630799

G01 Z-0.125000 F100.0(Penetrate)
G01 X83.889153 Y133.630799 Z-0.125000 F400.000000
G01 X83.889153 Y135.637852 Z-0.125000
G01 X85.330671 Y135.637852 Z-0.125000
G01 X85.330671 Y151.284948 Z-0.125000
G01 X83.889153 Y151.284948 Z-0.125000
G01 X83.889153 Y153.292001 Z-0.125000
G01 X88.235876 Y153.292001 Z-0.125000
G01 X88.235876 Y151.284948 Z-0.125000
G01 X86.794366 Y151.284948 Z-0.125000
G01 X86.794366 Y135.637852 Z-0.125000
G01 X88.235876 Y135.637852 Z-0.125000
G01 X88.235876 Y133.630799 Z-0.125000
G00 Z5.000000

(End cutting path id: text1)


(Start cutting path id: text1)
(Change tool to Default tool)

G00 Z5.000000
G00 X81.397914 Y133.630799

G01 Z-0.125000 F100.0(Penetrate)
G01 X79.934226 Y133.630799 Z-0.125000 F400.000000
G01 X79.934226 Y143.256734 Z-0.125000
G01 X74.441680 Y143.256734 Z-0.125000
G01 X74.441680 Y133.630799 Z-0.125000
G01 X72.977988 Y133.630799 Z-0.125000
G01 X72.977988 Y153.292001 Z-0.125000
G01 X74.441680 Y153.292001 Z-0.125000
G01 X74.441680 Y145.580691 Z-0.125000
G01 X79.934226 Y145.580691 Z-0.125000
G01 X79.934226 Y153.292001 Z-0.125000
G01 X81.397914 Y153.292001 Z-0.125000
G01 X81.397914 Y133.630799 Z-0.125000
G00 Z5.000000

(End cutting path id: text1)


(Start cutting path id: text1)
(Change tool to Default tool)

G00 Z5.000000
G00 X70.908119 Y135.056864

G01 Z-0.125000 F100.0(Penetrate)
G03 X70.503960 Y134.736955 Z-0.125000 I21.161020 J-27.149235 F400.000000
G03 X70.168880 Y134.462670 Z-0.125000 I15.219939 J-18.935187
G02 X69.830045 Y134.204704 Z-0.125000 I-2.502337 J2.935283
G02 X69.311363 Y133.881681 Z-0.125000 I-4.454208 J6.574247
G02 X68.849953 Y133.654909 Z-0.125000 I-2.456091 J4.414577
G02 X68.328175 Y133.459143 Z-0.125000 I-2.343719 J5.453512
G02 X67.794829 Y133.323924 Z-0.125000 I-1.012986 J2.876086
G02 X67.167571 Y133.274283 Z-0.125000 I-0.627258 J3.938094
G02 X66.013055 Y133.428753 Z-0.125000 I0.000000 J4.391664
G02 X64.986816 Y133.868477 Z-0.125000 I1.060705 J3.892897
G02 X64.127880 Y134.587923 Z-0.125000 I2.114361 J3.396763
G02 X63.286567 Y135.756691 Z-0.125000 I4.911756 J4.422808
G02 X62.698112 Y137.056658 Z-0.125000 I6.926367 J3.918525
G02 X62.177709 Y138.938927 Z-0.125000 I14.075159 J4.904524
G02 X61.891342 Y140.891441 Z-0.125000 I16.904871 J3.476623
G02 X61.778520 Y143.441593 Z-0.125000 I28.764526 J2.550152
G02 X61.885334 Y145.860568 Z-0.125000 I27.444071 J0.000000
G02 X62.162924 Y147.785808 Z-0.125000 I17.642173 J-1.561092
G02 X62.668830 Y149.656084 Z-0.125000 I14.393042 J-2.889728
G02 X63.271782 Y151.020861 Z-0.125000 I8.235526 J-2.822838
G02 X64.089573 Y152.196702 Z-0.125000 I5.926330 J-3.249428
G02 X64.964639 Y152.975098 Z-0.125000 I3.415780 J-2.958918
G02 X66.015435 Y153.475799 Z-0.125000 I2.193903 J-3.251254
G02 X67.174963 Y153.648517 Z-0.125000 I1.159528 J-3.805854
G02 X68.042695 Y153.555562 Z-0.125000 I0.000000 J-4.096599
G02 X68.941744 Y153.265592 Z-0.125000 I-1.016727 J-4.691094
G02 X69.778617 Y152.804025 Z-0.125000 I-1.965170 J-4.552532
G02 X70.908119 Y151.918754 Z-0.125000 I-6.317872 J-9.224053
G01 X70.908119 Y148.815743 Z-0.125000
G01 X70.797233 Y148.815743 Z-0.125000
G03 X69.800349 Y150.089666 Z-0.125000 I-9.010768 J-6.024198
G03 X68.993491 Y150.796388 Z-0.125000 I-3.523505 J-3.208801
G03 X68.050942 Y151.263381 Z-0.125000 I-2.053079 J-2.959121
G03 X67.078862 Y151.416990 Z-0.125000 I-0.972080 J-2.998979
G03 X66.284286 Y151.291492 Z-0.125000 I-0.000000 J-2.578137
G03 X65.570814 Y150.928431 Z-0.125000 I0.786906 J-2.428962
G03 X64.991300 Y150.378807 Z-0.125000 I1.680973 J-2.352720
G03 X64.380640 Y149.436345 Z-0.125000 I4.468868 J-3.564629
G03 X63.958848 Y148.415623 Z-0.125000 I5.867758 J-3.022239
G03 X63.582262 Y146.927529 Z-0.125000 I12.149454 J-3.866307
G03 X63.380731 Y145.414896 Z-0.125000 I14.419015 J-2.690817
G03 X63.301351 Y143.441593 Z-0.125000 I24.487499 J-1.973303
G03 X63.391049 Y141.377751 Z-0.125000 I23.788229 J0.000000
G03 X63.611831 Y139.876432 Z-0.125000 I12.787545 J1.113633
G03 X64.011011 Y138.413839 Z-0.125000 I13.120986 J2.795285
G03 X64.424994 Y137.446842 Z-0.125000 I6.124038 J2.049662
G03 X65.028034 Y136.545757 Z-0.125000 I4.671113 J2.473753
G03 X65.629954 Y135.994369 Z-0.125000 I2.305779 J1.912854
G03 X66.359049 Y135.645435 Z-0.125000 I1.597838 J2.402492
G03 X67.093646 Y135.532218 Z-0.125000 I0.734597 J2.326570
G03 X68.100246 Y135.692423 Z-0.125000 I0.000000 J3.242434
G03 X69.074807 Y136.179229 Z-0.125000 I-1.149841 J3.520838
G03 X69.903725 Y136.916374 Z-0.125000 I-2.748376 J3.925178
G03 X70.804626 Y138.120260 Z-0.125000 I-6.573109 J5.857859
G01 X70.908119 Y138.120260 Z-0.125000
G01 X70.908119 Y135.056864 Z-0.125000
G00 Z5.000000

(End cutting path id: text1)


(Start cutting path id: text1)
(Change tool to Default tool)

G00 Z5.000000
G00 X60.736193 Y133.630799

G01 Z-0.125000 F100.0(Penetrate)
G01 X59.176399 Y133.630799 Z-0.125000 F400.000000
G01 X58.097110 Y139.110583 Z-0.125000
G01 X53.336412 Y139.110583 Z-0.125000
G01 X52.257123 Y133.630799 Z-0.125000
G01 X50.771253 Y133.630799 Z-0.125000
G01 X54.777927 Y153.292001 Z-0.125000
G01 X56.729518 Y153.292001 Z-0.125000
G01 X60.736193 Y133.630799 Z-0.125000
G00 Z5.000000

(End cutting path id: text1)


(Start cutting path id: text1)
(Change tool to Default tool)

G00 Z5.000000
G00 X57.646174 Y141.355315

G01 Z-0.125000 F100.0(Penetrate)
G01 X55.716761 Y151.007657 Z-0.125000 F400.000000
G01 X53.779955 Y141.355315 Z-0.125000
G01 X57.646174 Y141.355315 Z-0.125000
G00 Z5.000000

(End cutting path id: text1)


(Start cutting path id: text1)
(Change tool to Default tool)

G00 Z5.000000
G00 X49.100574 Y133.630799

G01 Z-0.125000 F100.0(Penetrate)
G01 X47.636881 Y133.630799 Z-0.125000 F400.000000
G01 X47.636881 Y150.571915 Z-0.125000
G01 X44.576432 Y139.044562 Z-0.125000
G01 X43.704130 Y139.044562 Z-0.125000
G01 X40.665858 Y150.571915 Z-0.125000
G01 X40.665858 Y133.630799 Z-0.125000
G01 X39.298267 Y133.630799 Z-0.125000
G01 X39.298267 Y153.292001 Z-0.125000
G01 X41.294211 Y153.292001 Z-0.125000
G01 X44.228989 Y142.345636 Z-0.125000
G01 X47.067667 Y153.292001 Z-0.125000
G01 X49.100574 Y153.292001 Z-0.125000
G01 X49.100574 Y133.630799 Z-0.125000
G00 Z5.000000

(End cutting path id: text1)


(Start cutting path id: text1)
(Change tool to Default tool)

G00 Z5.000000
G00 X124.798629 Y150.968044

G01 Z-0.125000 F100.0(Penetrate)
G01 X120.865879 Y150.968044 Z-0.125000 F400.000000
G01 X120.865879 Y133.630799 Z-0.125000
G01 X119.402184 Y133.630799 Z-0.125000
G01 X119.402184 Y150.968044 Z-0.125000
G01 X115.469435 Y150.968044 Z-0.125000
G01 X115.469435 Y153.292001 Z-0.125000
G01 X124.798629 Y153.292001 Z-0.125000
G01 X124.798629 Y150.968044 Z-0.125000
G00 Z5.000000

(End cutting path id: text1)


(Start cutting path id: text1)
(Change tool to Default tool)

G00 Z5.000000
G00 X133.529036 Y133.630799

G01 Z-0.125000 F100.0(Penetrate)
G01 X126.277101 Y133.630799 Z-0.125000 F400.000000
G01 X126.277101 Y153.292001 Z-0.125000
G01 X133.529036 Y153.292001 Z-0.125000
G01 X133.529036 Y150.968044 Z-0.125000
G01 X127.740796 Y150.968044 Z-0.125000
G01 X127.740796 Y145.580691 Z-0.125000
G01 X133.529036 Y145.580691 Z-0.125000
G01 X133.529036 Y143.256734 Z-0.125000
G01 X127.740796 Y143.256734 Z-0.125000
G01 X127.740796 Y135.954756 Z-0.125000
G01 X133.529036 Y135.954756 Z-0.125000
G01 X133.529036 Y133.630799 Z-0.125000
G00 Z5.000000

(End cutting path id: text1)


(Start cutting path id: text1)
(Change tool to Default tool)

G00 Z5.000000
G00 X143.848811 Y139.242626

G01 Z-0.125000 F100.0(Penetrate)
G02 X143.773164 Y138.103887 Z-0.125000 I-8.608666 J-0.000000 F400.000000
G02 X143.545726 Y136.971487 Z-0.125000 I-8.740102 J1.166374
G02 X143.167332 Y135.887220 Z-0.125000 I-7.110437 J1.873281
G02 X142.710387 Y135.070068 Z-0.125000 I-4.474381 J1.965703
G02 X142.049125 Y134.299891 Z-0.125000 I-4.213337 J2.948540
G02 X141.328009 Y133.749637 Z-0.125000 I-2.836263 J2.969324
G02 X140.507356 Y133.406834 Z-0.125000 I-1.547534 J2.551009
G02 X139.435556 Y133.274283 Z-0.125000 I-1.071800 J4.266985
G02 X138.266740 Y133.381363 Z-0.125000 I-0.000000 J6.432541
G02 X137.291765 Y133.670412 Z-0.125000 I0.877399 J4.748351
G02 X136.384843 Y134.133122 Z-0.125000 I2.613125 J6.241928
G02 X135.362349 Y134.845594 Z-0.125000 I5.273947 J8.658772
G01 X135.362349 Y138.120260 Z-0.125000
G01 X135.465844 Y138.120260 Z-0.125000
G03 X136.403692 Y136.985818 Z-0.125000 I6.212787 J4.181250
G03 X137.395260 Y136.205637 Z-0.125000 I3.875857 J3.905801
G03 X138.530889 Y135.679023 Z-0.125000 I2.797511 J4.544977
G03 X139.450341 Y135.532218 Z-0.125000 I0.919452 J2.805905
G03 X140.690209 Y135.788001 Z-0.125000 I-0.000000 J3.132927
G03 X141.564562 Y136.443314 Z-0.125000 I-0.923639 J2.143329
G03 X142.105835 Y137.434291 Z-0.125000 I-2.222009 J1.856975
G03 X142.325984 Y138.872906 Z-0.125000 I-4.590424 J1.438615
G03 X142.207229 Y140.148009 Z-0.125000 I-6.904936 J-0.000000
G03 X141.963750 Y140.800734 Z-0.125000 I-2.008272 J-0.377348
G03 X141.529496 Y141.335226 Z-0.125000 I-1.843136 J-1.053825
G03 X140.877074 Y141.764647 Z-0.125000 I-1.812297 J-2.043112
G03 X140.312332 Y142.000597 Z-0.125000 I-2.699684 J-5.667798
G03 X139.672117 Y142.200389 Z-0.125000 I-2.563448 J-7.088692
G02 X139.033739 Y142.387167 Z-0.125000 I3.601652 J13.494250
G02 X138.304524 Y142.636132 Z-0.125000 I5.690330 J17.859289
G02 X137.025617 Y143.400562 Z-0.125000 I1.502733 J3.966137
G02 X136.131163 Y144.524346 Z-0.125000 I2.584893 J2.975248
G02 X135.637651 Y145.922345 Z-0.125000 I4.667650 J2.433850
G02 X135.428882 Y148.023486 Z-0.125000 I10.469001 J2.101140
G02 X135.762952 Y150.382127 Z-0.125000 I8.493412 J0.000000
G02 X136.596884 Y152.064001 Z-0.125000 I5.067088 J-1.464756
G02 X137.966665 Y153.249090 Z-0.125000 I3.305756 J-2.436773
G02 X139.561229 Y153.648517 Z-0.125000 I1.594564 J-2.983144
G02 X140.701157 Y153.543370 Z-0.125000 I-0.000000 J-6.231722
G02 X141.690235 Y153.252388 Z-0.125000 I-0.924601 J-4.969294
G02 X142.624611 Y152.797480 Z-0.125000 I-3.038427 J-7.427949
G02 X143.405268 Y152.275269 Z-0.125000 I-3.244938 J-5.695498
G01 X143.405268 Y149.185463 Z-0.125000
G01 X143.301773 Y149.185463 Z-0.125000
G03 X142.583283 Y150.042287 Z-0.125000 I-4.107860 J-2.714991
G03 X141.645880 Y150.756775 Z-0.125000 I-3.765725 J-3.968429
G03 X140.582258 Y151.238215 Z-0.125000 I-2.360561 J-3.799446
G03 X139.553836 Y151.390581 Z-0.125000 I-1.028422 J-3.394574
G03 X138.488690 Y151.157112 Z-0.125000 I0.000000 J-2.546466
G03 X137.661383 Y150.519097 Z-0.125000 I0.977766 J-2.123248
G03 X137.152598 Y149.576169 Z-0.125000 I2.215661 J-1.804256
G03 X136.951717 Y148.274367 Z-0.125000 I4.117700 J-1.301801
G03 X137.061395 Y147.072583 Z-0.125000 I6.639038 J-0.000000
G03 X137.306550 Y146.346539 Z-0.125000 I2.632884 J0.484605
G03 X137.766888 Y145.760705 Z-0.125000 I1.699648 J0.861771
G03 X138.555862 Y145.276991 Z-0.125000 I1.912078 J2.233449
G03 X139.033164 Y145.104232 Z-0.125000 I3.664213 J9.377879
G03 X139.901277 Y144.828045 Z-0.125000 I10.264648 J30.761426
G02 X140.764381 Y144.539633 Z-0.125000 I-4.624031 J-15.273595
G02 X141.379757 Y144.286669 Z-0.125000 I-2.933163 J-8.010372
G02 X142.456413 Y143.548441 Z-0.125000 I-1.765653 J-3.729315
G02 X143.227855 Y142.530497 Z-0.125000 I-2.720834 J-2.863255
G02 X143.655541 Y141.307393 Z-0.125000 I-3.840260 J-2.029160
G02 X143.848811 Y139.242626 Z-0.125000 I-10.932636 J-2.064767
G01 X143.848811 Y139.242626 Z-0.125000
G00 Z5.000000

(End cutting path id: text1)


(Start cutting path id: text1)
(Change tool to Default tool)

G00 Z5.000000
G00 X154.050314 Y150.968044

G01 Z-0.125000 F100.0(Penetrate)
G01 X150.117564 Y150.968044 Z-0.125000 F400.000000
G01 X150.117564 Y133.630799 Z-0.125000
G01 X148.653869 Y133.630799 Z-0.125000
G01 X148.653869 Y150.968044 Z-0.125000
G01 X144.721120 Y150.968044 Z-0.125000
G01 X144.721120 Y153.292001 Z-0.125000
G01 X154.050314 Y153.292001 Z-0.125000
G01 X154.050314 Y150.968044 Z-0.125000
G00 Z5.000000

(End cutting path id: text1)


(Footer)
M5
G00 X0.0000 Y0.0000
M2
(Using default footer. To add your own footer create file "footer" in the output dir.)
(end)
%